X:22
T:Bonnie Johnnie Lowrie
F:http://www.vwml.org/record/FK/4/24
M:C
L:1/8
Z:Transcribed Steve Mansfield March 2016
K:G
B | Beed BGdB | Beef g>efd | B< e ed BG d> B | B<edB A2 A ||
"Chorus"
G< E E G D E GA | G< E E F GA B> A | G< E E G D> E G A | B< e d B A2A |]

